packages/brickdoc-design-icons/assets/edit/list-ordered.svg

<svg width="1em" height="1em" viewBox="0 0 24 24" fill="none" xmlns="http://www.w3.org/2000/svg">
<path fill-rule="evenodd" clip-rule="evenodd" d="M4.00438 1H5V6H3.65061V2.60417C3.41618 2.72783 3.15598 2.82549 2.8732 2.89825L2.5 2.99428V1.76589L2.72143 1.71641C2.9127 1.67367 3.11835 1.59721 3.35367 1.48074C3.58888 1.35187 3.77407 1.22301 3.91756 1.08406L4.00438 1ZM4.45444 11.3515C4.65157 11.136 4.74224 10.9196 4.74224 10.698C4.74224 10.4627 4.67635 10.3269 4.58409 10.2458C4.48664 10.1602 4.31765 10.0982 4.05012 10.0982C3.78689 10.0982 3.62209 10.1792 3.51148 10.3233L3.50889 10.3267L3.50617 10.3299C3.38031 10.482 3.29976 10.7217 3.28625 11.1004L3.27831 11.3232H2.02564L2.02866 11.0896C2.03638 10.4927 2.2151 9.99088 2.58486 9.60828C2.96604 9.19322 3.47833 9 4.07876 9C4.61194 9 5.08156 9.14516 5.44933 9.46834L5.45135 9.47012C5.81013 9.79274 5.99284 10.208 5.99284 10.7049C5.99284 11.2002 5.79229 11.641 5.43021 12.0291L5.42478 12.0349C5.20581 12.2541 4.83706 12.5283 4.32699 12.8616L4.32511 12.8629C4.0571 13.0345 3.85008 13.1916 3.69971 13.3337C3.68522 13.3475 3.67136 13.3609 3.6581 13.3742H6V14.5H2V14.2693C2 13.7232 2.18488 13.2402 2.5664 12.8242C2.77661 12.5831 3.18792 12.2706 3.76292 11.8863C4.10251 11.6537 4.32811 11.4789 4.45444 11.3515ZM4.05978 18.0833C4.33464 18.0833 4.5152 18.1471 4.62408 18.2524C4.72264 18.3537 4.78648 18.5043 4.78648 18.7348C4.78648 18.963 4.71728 19.1187 4.60769 19.2203C4.49637 19.3235 4.31148 19.3939 4.0245 19.3939H3.48829V20.3939H4.03156C4.34246 20.3939 4.54869 20.4658 4.67347 20.5774L4.67894 20.5819C4.80718 20.6879 4.88525 20.8589 4.88525 21.1364C4.88525 21.3554 4.81439 21.5269 4.67818 21.6742C4.51787 21.8328 4.30239 21.9242 4.01745 21.9242C3.75666 21.9242 3.56242 21.8453 3.4175 21.7017L3.41332 21.6978C3.24792 21.5439 3.15511 21.3189 3.14243 20.9921L3.13538 20.8106H2L2.01422 21.0142C2.05924 21.6587 2.27216 22.1732 2.66931 22.5314C3.01888 22.847 3.47871 23 4.0245 23C4.59611 23 5.08414 22.8216 5.46006 22.4684L5.4642 22.4642C5.81951 22.1081 6 21.6479 6 21.0985C6 20.7434 5.90488 20.4314 5.70289 20.1865C5.59995 20.0563 5.47278 19.946 5.32364 19.8555C5.45477 19.7662 5.5664 19.6583 5.65589 19.5305C5.82215 19.2933 5.90123 19.0032 5.90123 18.6742C5.90123 18.1607 5.7261 17.7419 5.38625 17.4378L5.3831 17.4351C5.03333 17.1364 4.5888 17 4.05272 17C3.52645 17 3.07929 17.1541 2.72975 17.4941C2.35825 17.8347 2.15859 18.3003 2.11313 18.878L2.09696 19.0833H3.20488L3.21947 18.9111C3.24482 18.6116 3.33741 18.4105 3.46637 18.2836C3.59352 18.1584 3.78541 18.0833 4.05978 18.0833Z" fill="#3E3E3E"/>
<path fill-rule="evenodd" clip-rule="evenodd" d="M8 12C8 11.4477 8.44772 11 9 11H21C21.5523 11 22 11.4477 22 12C22 12.5523 21.5523 13 21 13H9C8.44772 13 8 12.5523 8 12Z" fill="#3E3E3E"/>
<path fill-rule="evenodd" clip-rule="evenodd" d="M8 20C8 19.4477 8.44772 19 9 19H21C21.5523 19 22 19.4477 22 20C22 20.5523 21.5523 21 21 21H9C8.44772 21 8 20.5523 8 20Z" fill="#3E3E3E"/>
<path fill-rule="evenodd" clip-rule="evenodd" d="M8 4C8 3.44772 8.44772 3 9 3H21C21.5523 3 22 3.44772 22 4C22 4.55228 21.5523 5 21 5H9C8.44772 5 8 4.55228 8 4Z" fill="#3E3E3E"/>
</svg>

<svg  viewBox="0 0 24 24" width="1em" height="1em" fill="none" xmlns="http://www.w3.org/2000/svg"><path fill-rule="evenodd" clip-rule="evenodd" d="M4.004 1H5v5H3.65V2.604a3.568 3.568 0 0 1-.777.294l-.373.096V1.766l.221-.05a2.82 2.82 0 0 0 .633-.235c.235-.13.42-.258.564-.397L4.004 1Zm.45 10.351c.198-.215.288-.431.288-.653 0-.235-.066-.371-.158-.452-.097-.086-.266-.148-.534-.148-.263 0-.428.081-.539.225l-.002.004-.003.003c-.126.152-.206.392-.22.77l-.008.223H2.026l.003-.233c.007-.597.186-1.1.556-1.482C2.966 9.193 3.478 9 4.079 9c.533 0 1.003.145 1.37.468l.002.002c.36.323.542.738.542 1.235 0 .495-.2.936-.563 1.324l-.005.006c-.22.22-.588.493-1.098.827h-.002a4.288 4.288 0 0 0-.667.512H6V14.5H2v-.23c0-.547.185-1.03.566-1.446.21-.24.622-.553 1.197-.938.34-.232.565-.407.691-.534Zm-.394 6.732c.275 0 .455.064.564.17.099.1.162.251.162.482 0 .228-.069.384-.178.485-.112.104-.297.174-.583.174h-.537v1h.544c.31 0 .517.072.641.183l.006.005c.128.106.206.277.206.554 0 .22-.07.39-.207.538-.16.159-.376.25-.66.25-.261 0-.456-.079-.6-.222l-.005-.004c-.165-.154-.258-.38-.27-.706l-.008-.181H2l.014.203c.045.645.258 1.16.655 1.517.35.316.81.469 1.355.469.572 0 1.06-.178 1.436-.532l.004-.004C5.82 22.108 6 21.648 6 21.1c0-.356-.095-.668-.297-.913-.103-.13-.23-.24-.38-.33.132-.09.243-.198.333-.326.166-.237.245-.527.245-.856 0-.513-.175-.932-.515-1.236l-.003-.003c-.35-.299-.794-.435-1.33-.435-.527 0-.974.154-1.323.494-.372.34-.571.806-.617 1.384l-.016.205h1.108l.014-.172c.026-.3.118-.5.247-.627.128-.126.32-.2.594-.2ZM8 12a1 1 0 0 1 1-1h12a1 1 0 1 1 0 2H9a1 1 0 0 1-1-1ZM8 20a1 1 0 0 1 1-1h12a1 1 0 1 1 0 2H9a1 1 0 0 1-1-1ZM8 4a1 1 0 0 1 1-1h12a1 1 0 1 1 0 2H9a1 1 0 0 1-1-1Z" fill="#34313c"/></svg>
